X:1
T:Indian National Anthem
T:Indian National Anthem
T:Rabindranath Tagore
T:Arr. Harris Prinic
C:Rabindranath Tagore
Z:Arr. Harris Prinic
%%score { 1 | 2 }
L:1/8
Q:1/4=92
M:4/4
K:C
V:1 treble nm="Piano" snm="Pno."
V:2 bass 
V:1
"^Andante"!mf! CDEE EEEE | E-EEE DEF-F |!>(! E-EEE D-DDD!>)! |!mp! B,DC-C z z!mf! C-C | %4
 G-GGG- GGG-G |!>(! G^FFA G-G=F-F!>)! | FFF-F FE!mp!DF | E-E z z!mf! E-EEE | E-EED GGG-G | %9
!>(! F-FF-F E-EEE!>)! | D-DDD!mp! B,DC-C- | CC!mf!DE EE-EE- | EDEF- F-FEF |!f! GGG-G FEDF | %14
!>(! E-E-EE- EE-ED!>)! | DDD!mf!B, DC-C-C |!f! GGGG G-GGG | G-GG^F FAG-G | =F-FFF F-FFE | %19
 DFE-E- E z!ff! cB | c-c-c z BAB-B- | B z AG A-A-A z | CCDD EEDE |!fff! F8 |] %24
V:2
!ped! C,G,CG, C,G,CG,!ped-up! |!ped! C,G,CG, G,,D,G,D,!ped-up! | %2
!ped! C,,G,,C,G,, C,,G,,C,G,,!ped-up! |!ped! C,,G,,C,G,, C,G,,G,,D,!ped-up! | %4
!ped! G,D,G,,D, G,D,G,,D,!ped-up! |!ped! G,D,G,,D, G,D,F,,C,!ped-up! | %6
!ped! F,C,F,,C, F,C,C,,G,,!ped-up! |!ped! C,G,,C,G,, C,,G,,C,G,,!ped-up! | %8
!ped! C,,G,,C,G,, G,,D,G,D,!ped-up! |!ped! F,,C,F,C, C,,G,,C,G,,!ped-up! | %10
!ped! G,,D,G,D, C,,G,,C,G,,!ped-up! |!ped! C,C,,G,,C, G,,C,,G,,C,!ped-up! | %12
!ped! G,,G,,D,G, D,G,C,,G,,!ped-up! |!ped! C,G,,C,,G,, C,G,,C,,G,,!ped-up! | %14
!ped! C,G,,C,,G,, C,G,,C,,G,,!ped-up! |!ped! C,G,,C,,G,, C,G,,C,G,,!ped-up! | %16
!ped! G,,D,G,D, G,,D,G,D,!ped-up! |!ped! G,,D,G,D, G,,D,G,D,!ped-up! | %18
!ped! F,,C,F,C, F,,C,F,C,!ped-up! |!ped! C,,G,,C,G,, C,G,,C,,G,,!ped-up! | %20
!ped! C,G,,C,G,, G,,D,G,D,!ped-up! |!ped! G,D,F,,C, F,C,F,C,!ped-up! | %22
!ped! C,,G,,C,G,, C,,G,,C,G,,!ped-up! |!ped! [F,,C,F,]8!ped-up! |] %24

